packages/foundations/assets/icons/functional/images/devices/telephone.svg

<svg xmlns="http://www.w3.org/2000/svg" width="32" height="32" fill="none"><path fill="#1A1C1F" fill-rule="evenodd" d="M7.093 2.586c-.752.15-1.279.446-2.099 1.177C3.731 4.889 3 5.976 2.684 7.194c-.184.709-.228 1.913-.101 2.774.529 3.588 3.132 7.824 7.441 12.112 3.658 3.639 7.342 6.092 10.529 7.01 1.129.325 1.488.375 2.674.372.98-.003 1.109-.015 1.593-.145a5.7 5.7 0 0 0 1.869-.899c.84-.598 1.993-1.822 2.34-2.486.668-1.28.603-2.846-.167-3.98-.108-.157-.975-1.085-1.929-2.062-1.747-1.789-2.061-2.062-2.687-2.336-.879-.385-2.137-.427-3.019-.1-.52.192-.862.457-1.814 1.403l-.933.928-.373-.296c-.931-.74-2.541-2.263-3.829-3.622-1.021-1.078-2.011-2.211-2.011-2.302 0-.027.362-.394.804-.816s.897-.888 1.01-1.038c.862-1.143 1.014-2.759.378-4.021a5 5 0 0 0-.396-.624c-.332-.437-3.646-3.627-4.054-3.901a3.91 3.91 0 0 0-2.916-.579m1.66 2.093c.304.15.588.408 2.168 1.974 1.703 1.687 1.824 1.819 1.915 2.094.147.449.125 1.018-.056 1.416-.124.272-.324.493-1.396 1.544-.689.676-1.274 1.294-1.304 1.376-.076.215-.066.544.024.76.092.219.767 1.174 1.337 1.889 1.747 2.195 4.126 4.433 6.27 5.9.557.381.777.447 1.152.346.184-.05.436-.27 1.522-1.331 1.173-1.145 1.334-1.284 1.619-1.391.262-.099.393-.116.769-.097.755.038.766.046 2.629 1.929.903.912 1.725 1.779 1.826 1.926.262.381.378.886.305 1.327-.096.577-.292.896-.998 1.624-1.244 1.28-2.128 1.669-3.628 1.592-1.418-.073-3.14-.647-4.909-1.636C13.32 23.307 7.777 17.558 5.576 13.04c-.807-1.656-1.15-2.922-1.148-4.24.001-1.339.3-1.997 1.434-3.162.937-.961 1.315-1.166 2.113-1.144.36.011.483.04.778.185"/></svg>

<svg width="32" height="32" viewBox="0 0 32 32" fill="none" xmlns="http://www.w3.org/2000/svg"><path d="M7.093 2.586 C 6.341 2.736,5.814 3.032,4.994 3.763 C 3.731 4.889,3.000 5.976,2.684 7.194 C 2.500 7.903,2.456 9.107,2.583 9.968 C 3.112 13.556,5.715 17.792,10.024 22.080 C 13.682 25.719,17.366 28.172,20.553 29.090 C 21.682 29.415,22.041 29.465,23.227 29.462 C 24.207 29.459,24.336 29.447,24.820 29.317 C 25.480 29.140,26.078 28.853,26.689 28.418 C 27.529 27.820,28.682 26.596,29.029 25.932 C 29.697 24.652,29.632 23.086,28.862 21.952 C 28.754 21.795,27.887 20.867,26.933 19.890 C 25.186 18.101,24.872 17.828,24.246 17.554 C 23.367 17.169,22.109 17.127,21.227 17.454 C 20.707 17.646,20.365 17.911,19.413 18.857 L 18.480 19.785 18.107 19.489 C 17.176 18.749,15.566 17.226,14.278 15.867 C 13.257 14.789,12.267 13.656,12.267 13.565 C 12.267 13.538,12.629 13.171,13.071 12.749 C 13.514 12.328,13.968 11.861,14.081 11.711 C 14.943 10.568,15.095 8.952,14.459 7.690 C 14.374 7.523,14.196 7.242,14.063 7.066 C 13.731 6.629,10.417 3.439,10.009 3.165 C 9.167 2.599,8.094 2.386,7.093 2.586 M8.753 4.679 C 9.057 4.829,9.341 5.087,10.921 6.653 C 12.624 8.340,12.745 8.472,12.836 8.747 C 12.983 9.196,12.961 9.765,12.780 10.163 C 12.656 10.435,12.456 10.656,11.384 11.707 C 10.695 12.383,10.110 13.001,10.080 13.083 C 10.004 13.298,10.014 13.627,10.104 13.843 C 10.196 14.062,10.871 15.017,11.441 15.732 C 13.188 17.927,15.567 20.165,17.711 21.632 C 18.268 22.013,18.488 22.079,18.863 21.978 C 19.047 21.928,19.299 21.708,20.385 20.647 C 21.558 19.502,21.719 19.363,22.004 19.256 C 22.266 19.157,22.397 19.140,22.773 19.159 C 23.528 19.197,23.539 19.205,25.402 21.088 C 26.305 22.000,27.127 22.867,27.228 23.014 C 27.490 23.395,27.606 23.900,27.533 24.341 C 27.437 24.918,27.241 25.237,26.535 25.965 C 25.291 27.245,24.407 27.634,22.907 27.557 C 21.489 27.484,19.767 26.910,17.998 25.921 C 13.320 23.307,7.777 17.558,5.576 13.040 C 4.769 11.384,4.426 10.118,4.428 8.800 C 4.429 7.461,4.728 6.803,5.862 5.638 C 6.799 4.677,7.177 4.472,7.975 4.494 C 8.335 4.505,8.458 4.534,8.753 4.679 " fill="#1A1C1F" stroke="none" fill-rule="evenodd"></path></svg>
